svg/speakers.svg

<svg width="24" height="24" viewBox="0 0 24 24" fill="none" xmlns="http://www.w3.org/2000/svg">
<path d="M4 4C4 2.89543 4.89543 2 6 2H18C19.1046 2 20 2.89543 20 4V20C20 21.1046 19.1046 22 18 22H6C4.89543 22 4 21.1046 4 20V4ZM18 4L6 4V20H18V4Z" fill="#0D0D0D"/>
<path d="M12 12C10.8954 12 10 12.8954 10 14C10 15.1046 10.8954 16 12 16C13.1046 16 14 15.1046 14 14C14 12.8954 13.1046 12 12 12ZM8 14C8 11.7909 9.79086 10 12 10C14.2091 10 16 11.7909 16 14C16 16.2091 14.2091 18 12 18C9.79086 18 8 16.2091 8 14Z" fill="#0D0D0D"/>
<path d="M13.5 7.5C13.5 8.32843 12.8284 9 12 9C11.1716 9 10.5 8.32843 10.5 7.5C10.5 6.67157 11.1716 6 12 6C12.8284 6 13.5 6.67157 13.5 7.5Z" fill="#0D0D0D"/>
</svg>

<svg width="24" height="24" fill="none" xmlns="http://www.w3.org/2000/svg"><path d="M4 4a2 2 0 012-2h12a2 2 0 012 2v16a2 2 0 01-2 2H6a2 2 0 01-2-2V4zm14 0H6v16h12V4z" fill="#0D0D0D"/><path d="M12 12a2 2 0 100 4 2 2 0 000-4zm-4 2a4 4 0 118 0 4 4 0 01-8 0zM13.5 7.5a1.5 1.5 0 11-3 0 1.5 1.5 0 013 0z" fill="#0D0D0D"/></svg>
